symbols/web/inbox/materialsymbolssharp/inbox_wght100_48px.svg

<svg xmlns="http://www.w3.org/2000/svg" height="48" width="48"><path d="M8.6 39.4V8.6h30.8v30.8Zm1.1-1.1h28.6v-7.25h-7.9q-.9 1.95-2.65 3T24 35.1q-2 0-3.75-1.05t-2.65-3H9.7ZM24 34q1.95 0 3.525-1.125t2.325-2.925h8.45V9.7H9.7v20.25h8.45q.75 1.8 2.325 2.925Q22.05 34 24 34ZM9.7 38.3h28.6Z"/></svg>

<svg xmlns="http://www.w3.org/2000/svg" height="48" width="48"><path d="M8.6 39.4V8.6H39.4V39.4ZM9.7 38.3H38.3V31.05H30.4Q29.5 33 27.75 34.05Q26 35.1 24 35.1Q22 35.1 20.25 34.05Q18.5 33 17.6 31.05H9.7ZM24 34Q25.95 34 27.525 32.875Q29.1 31.75 29.85 29.95H38.3V9.7H9.7V29.95H18.15Q18.9 31.75 20.475 32.875Q22.05 34 24 34ZM9.7 38.3H17.6Q18.5 38.3 20.25 38.3Q22 38.3 24 38.3Q26 38.3 27.75 38.3Q29.5 38.3 30.4 38.3H38.3Z"/></svg>
